X: 42687
T: Whistler At The Wake, The
R: jig
M: 6/8
K: Dmajor
FGA AFA|BAd ede|fed ABB|AFE EDE|
EFA AFA|Bcd efg|fed BdB|AFD DED|
DEF AFA|BAd e2e|fed BdB|AFE EDE|
FAA AFA|Bcd efg|fed (3Bcd B|AFD D2f||
fed BdB|AFE EDE|ABF ABF|ABF AFA|
fed BdB|AFE E2e|fed BdB|AFD D de|
fed ABd|AFE EDE|A3 ABF|ABF AFA|
fed BdB|AFE EFe|fed BdB|AFD DED||

